dist/img/svg/ic_pin-offer.svg

<svg width="53" height="58" viewBox="0 0 53 58" fill="none" xmlns="http://www.w3.org/2000/svg">
<g filter="url(#filter0_d)">
<path d="M48.4697 22.2349C48.4697 34.5148 38.5148 44.4697 26.2349 44.4697C13.9549 44.4697 4 34.5148 4 22.2349C4 9.95489 13.9549 0 26.2349 0C38.5148 0 48.4697 9.95489 48.4697 22.2349Z" fill="#00AF27"/>
<path d="M19.9459 43.5803L26.2349 37.2914L32.5239 43.5803L26.2349 49.8693L19.9459 43.5803Z" fill="#00AF27"/>
</g>
<g clip-path="url(#clip0)">
<path d="M31.1523 36.0001C30.9967 36.0001 30.8432 35.9507 30.7155 35.8562L26.8955 33.0349C23.5113 33.463 20.0842 32.2983 17.6709 29.8845C13.3565 25.5703 13.3565 18.5502 17.6709 14.2358C21.9851 9.92159 29.0053 9.92121 33.3196 14.2358C36.048 16.9642 37.1477 20.8313 36.2679 24.5905C36.2621 24.6255 36.2539 24.6603 36.243 24.695C36.1236 25.1904 35.9574 25.7095 35.7563 26.2078L34.0341 30.3058C33.8769 30.6802 33.4456 30.8561 33.0712 30.6989C32.6968 30.5414 32.5207 30.1103 32.6782 29.7359L34.3963 25.6477C34.5654 25.2282 34.7089 24.781 34.8188 24.3281C34.8203 24.32 34.8223 24.312 34.8242 24.3039C35.6082 21.0285 34.657 17.6535 32.2796 15.2757C28.5382 11.5347 22.4515 11.5351 18.7108 15.2757C14.97 19.0167 14.97 25.1037 18.7108 28.8445C20.867 31.0006 23.9559 32.0071 26.9777 31.538C27.1709 31.5066 27.3697 31.5564 27.5276 31.673L30.8369 34.117L31.5639 32.3872C31.7209 32.0128 32.1522 31.8372 32.5268 31.9942C32.9012 32.1516 33.0773 32.5827 32.9199 32.9571L31.8303 35.5494C31.7429 35.7574 31.5648 35.9137 31.3473 35.9737C31.2831 35.9915 31.2176 36.0001 31.1523 36.0001Z" fill="white"/>
<path d="M30.1562 19.7853H21.2973C20.9723 19.7853 20.709 19.522 20.709 19.197C20.709 18.872 20.9723 18.6086 21.2973 18.6086H30.1561C30.4811 18.6086 30.7445 18.872 30.7445 19.197C30.7445 19.522 30.4812 19.7853 30.1562 19.7853Z" fill="white"/>
<path d="M30.1562 23.1586H21.2973C20.9723 23.1586 20.709 22.8953 20.709 22.5703C20.709 22.2453 20.9723 21.9819 21.2973 21.9819H30.1561C30.4811 21.9819 30.7445 22.2453 30.7445 22.5703C30.7445 22.8953 30.4812 23.1586 30.1562 23.1586Z" fill="white"/>
<path d="M26.3615 26.5316H21.2973C20.9723 26.5316 20.709 26.2683 20.709 25.9433C20.709 25.6183 20.9723 25.355 21.2973 25.355H26.3615C26.6865 25.355 26.9499 25.6183 26.9499 25.9433C26.9499 26.2683 26.6866 26.5316 26.3615 26.5316Z" fill="white"/>
</g>
<defs>
<filter id="filter0_d" x="0" y="0" width="52.4697" height="57.8693" filterUnits="userSpaceOnUse" color-interpolation-filters="sRGB">
<feFlood flood-opacity="0" result="BackgroundImageFix"/>
<feColorMatrix in="SourceAlpha" type="matrix" values="0 0 0 0 0 0 0 0 0 0 0 0 0 0 0 0 0 0 127 0"/>
<feOffset dy="4"/>
<feGaussianBlur stdDeviation="2"/>
<feColorMatrix type="matrix" values="0 0 0 0 0 0 0 0 0 0 0 0 0 0 0 0 0 0 0.25 0"/>
<feBlend mode="normal" in2="BackgroundImageFix" result="effect1_dropShadow"/>
<feBlend mode="normal" in="SourceGraphic" in2="effect1_dropShadow" result="shape"/>
</filter>
<clipPath id="clip0">
<rect width="25" height="25" fill="white" transform="translate(13 11)"/>
</clipPath>
</defs>
</svg>

<svg width="53" height="58" viewBox="0 0 53 58" fill="none" xmlns="http://www.w3.org/2000/svg"><g filter="url(#filter0_d)" fill="#00AF27"><path d="M48.47 22.235c0 12.28-9.955 22.235-22.235 22.235S4 34.515 4 22.235 13.955 0 26.235 0 48.47 9.955 48.47 22.235z"/><path d="M19.946 43.58l6.289-6.289 6.289 6.29-6.29 6.288-6.288-6.289z"/></g><g clip-path="url(#clip0)" fill="#fff"><path d="M31.152 36a.734.734 0 01-.437-.144l-3.82-2.821a11.11 11.11 0 01-9.224-3.15c-4.314-4.315-4.314-11.335 0-15.65 4.314-4.313 11.334-4.314 15.649 0a11 11 0 012.923 10.46 11.11 11.11 0 01-.487 1.513l-1.722 4.098a.736.736 0 01-1.356-.57l1.718-4.088c.17-.42.313-.867.423-1.32l.005-.024a9.54 9.54 0 00-2.544-9.028c-3.742-3.741-9.829-3.74-13.57 0-3.74 3.74-3.74 9.828 0 13.569a9.634 9.634 0 008.268 2.693.73.73 0 01.55.135l3.309 2.444.727-1.73a.736.736 0 011.356.57l-1.09 2.592a.736.736 0 01-.678.451z"/><path d="M30.156 19.785h-8.859a.588.588 0 110-1.176h8.86a.588.588 0 010 1.176zm0 3.374h-8.859a.588.588 0 110-1.177h8.86a.588.588 0 010 1.177zm-3.795 3.373h-5.064a.588.588 0 110-1.177h5.064a.588.588 0 110 1.177z"/></g><defs><clipPath id="clip0"><path fill="#fff" transform="translate(13 11)" d="M0 0h25v25H0z"/></clipPath><filter id="filter0_d" x="0" y="0" width="52.47" height="57.869" filterUnits="userSpaceOnUse" color-interpolation-filters="sRGB"><feFlood flood-opacity="0" result="BackgroundImageFix"/><feColorMatrix in="SourceAlpha" values="0 0 0 0 0 0 0 0 0 0 0 0 0 0 0 0 0 0 127 0"/><feOffset dy="4"/><feGaussianBlur stdDeviation="2"/><feColorMatrix values="0 0 0 0 0 0 0 0 0 0 0 0 0 0 0 0 0 0 0.25 0"/><feBlend in2="BackgroundImageFix" result="effect1_dropShadow"/><feBlend in="SourceGraphic" in2="effect1_dropShadow" result="shape"/></filter></defs></svg>
